X: 11696
T: Eira Cyntaf Mabon Iago
R: hornpipe
M: 4/4
K: Dmajor
|:A>G|F>Ad>c e>dA>F|G>Be>d c>AG>E|F>A d2 G>Be>d|c>eg>e (3cBA (3GFE|
F>Ad>c e>dA>F|G>Be>d c>A (3GFE|F>Ad>A B>ge>c|d2 (3cde d2:|
|:c>d|e>^de>f g>ec>A|d>cd>e f<dA3/2[F/f/]|g>Af>A e>Ad>A|e>dc>B A2 (3GFE|
F>A d2 e>dA>F|G>B e2 c>AG>E|F>A d2 B>ge>c|(3ded c2 d2:|

